; LightBurn 0.9.16
; Smoothieware device profile, absolute coords
; Bounds: X21.2 Y2.9 to X425.7 Y452.5
G00 G17 G40 G21
G90
M3
; Cut @ 800 mm/min, 70% power
M106
G0X21.2Y15.5
; Layer Cut
G1Y16.83S0.7F800
G1Y18.16
G1Y19.5
G1Y20.83
G1Y22.16
G1Y23.49
G1Y24.83
G1Y26.16
G1Y27.49
G1Y28.82
G1Y30.16
G1Y31.49
G1Y32.82
G1Y34.15
G1Y35.48
G1Y36.82
G1Y38.15
G1Y39.48
G1Y40.81
G1Y42.15
G1Y43.48
G1Y44.81
G1Y46.14
G1Y47.48
G1Y48.81
G1Y50.14
G1Y51.47
G1Y52.8
G1Y54.14
G1Y55.47
G1Y56.8
G1Y58.13
G1Y59.47
G1Y60.8
G1Y62.13
G1Y63.46
G1Y64.8
G1Y66.13
G1Y67.46
G1Y68.79
G1Y70.12
G1Y71.46
G1Y72.79
G1Y74.12
G1Y75.45
G1Y76.79
G1Y78.12
G1Y79.45
G1Y80.78
G1Y82.12
G1Y83.45
G1Y84.78
G1Y86.11
G1Y87.44
G1Y88.78
G1Y90.11
G1Y91.44
G1Y92.77
G1Y94.11
G1Y95.44
G1Y96.77
G1Y98.1
G1Y99.44
G1Y100.77
G1Y102.1
G1Y103.43
G1Y104.76
G1Y106.1
G1Y107.43
G1Y108.76
G1Y110.09
G1Y111.43
G1Y112.76
G1Y114.09
G1Y115.42
G1Y116.76
G1Y118.09
G1Y119.42
G1Y120.75
G1Y122.08
G1Y123.42
G1Y124.75
G1Y126.08
G1Y127.41
G1Y128.75
G1Y130.08
G1Y131.41
G1Y132.74
G1Y134.08
G1Y135.41
G1Y136.74
G1Y138.07
G1Y139.4
G1Y140.74
G1Y142.07
G1Y143.4
G1Y144.73
G1Y146.07
G1Y147.4
G1Y148.73
G1Y150.06
G1Y151.4
G1Y152.73
G1Y154.06
G1Y155.39
G1Y156.72
G1Y158.06
G1Y159.39
G1Y160.72
G1Y162.05
G1Y163.39
G1Y164.72
G1Y166.05
G1Y167.38
G1Y168.72
G1Y170.05
G1Y171.38
G1Y172.71
G1Y174.04
G1Y175.38
G1Y176.71
G1Y178.04
G1Y179.37
G1Y180.71
G1Y182.04
G1Y183.37
G1Y184.7
G1Y186.04
G1Y187.37
G1Y188.7
G1Y190.03
G1Y191.36
G1Y192.7
G1Y194.03
G1Y195.36
G1Y196.69
G1Y198.03
G1Y199.36
G1Y200.69
G1Y202.02
G1Y203.36
G1Y204.69
G1Y206.02
G1Y207.35
G1Y208.68
G1Y210.02
G1Y211.35
G1Y212.68
G1Y214.01
G1Y215.35
G1Y216.68
G1Y218.01
G1Y219.34
G1Y220.68
G1Y222.01
G1Y223.34
G1Y224.67
G1Y226
G1Y227.34
G1Y228.67
G1Y230
G1Y231.33
G1Y232.67
G1Y234
G1Y235.33
G1Y236.66
G1Y238
G1Y239.33
G1Y240.66
G1Y241.99
G1Y243.32
G1Y244.66
G1Y245.99
G1Y247.32
G1Y248.65
G1Y249.99
G1Y251.32
G1Y252.65
G1Y253.98
G1Y255.32
G1Y256.65
G1Y257.98
G1Y259.31
G1Y260.64
G1Y261.98
G1Y263.31
G1Y264.64
G1Y265.97
G1Y267.31
G1Y268.64
G1Y269.97
G1Y271.3
G1Y272.64
G1Y273.97
G1Y275.3
G1Y276.63
G1Y277.96
G1Y279.3
G1Y280.63
G1Y281.96
G1Y283.29
G1Y284.63
G1Y285.96
G1Y287.29
G1Y288.62
G1Y289.96
G1Y291.29
G1Y292.62
G1Y293.95
G1Y295.28
G1Y296.62
G1Y297.95
G1Y299.28
G1Y300.61
G1Y301.95
G1Y303.28
G1Y304.61
G1Y305.94
G1Y307.28
G1Y308.61
G1Y309.94
G1Y311.27
G1Y312.6
G1Y313.94
G1Y315.27
G1Y316.6
G1Y317.93
G1Y319.27
G1Y320.6
G1Y321.93
G1Y323.26
G1Y324.6
G1Y325.93
G1Y327.26
G1Y328.59
G1Y329.92
G1Y331.26
G1Y332.59
G1Y333.92
G1Y335.25
G1Y336.59
G1Y337.92
G1Y339.25
G1Y340.58
G1Y341.92
G1Y343.25
G1Y344.58
G1Y345.91
G1Y347.24
G1Y348.58
G1Y349.91
G1Y351.24
G1Y352.57
G1Y353.91
G1Y355.24
G1Y356.57
G1Y357.9
G1Y359.24
G1Y360.57
G1Y361.9
G1Y363.23
G1Y364.56
G1Y365.9
G1Y367.23
G1Y368.56
G1Y369.89
G1Y371.23
G1Y372.56
G1Y373.89
G1Y375.22
G1Y376.56
G1Y377.89
G1Y379.22
G1Y380.55
G1Y381.88
G1Y383.22
G1Y384.55
G1Y385.88
G1Y387.21
G1Y388.55
G1Y389.88
G1Y391.21
G1Y392.54
G1Y393.88
G1Y395.21
G1Y396.54
G1Y397.87
G1Y399.2
G1Y400.54
G1Y401.87
G1Y403.2
G1Y404.53
G1Y405.87
G1Y407.2
G1Y408.53
G1Y409.86
G1Y411.2
G1Y412.53
G1Y413.86
G1Y415.19
G1Y416.52
G1Y417.86
G1Y419.19
G1Y420.52
G1Y421.85
G1Y423.19
G1Y424.52
G1Y425.85
G1Y427.18
G1Y428.52
G1Y429.85
G1Y431.18
G1Y432.51
G1Y433.84
G1Y435.18
G1Y436.51
G1Y437.84
G1Y439.17
G1Y440.51
G1Y441.84
G1Y443.17
G1Y444.5
G1Y445.84
G1Y447.17
G1Y448.5
G1X22.46
G1X23.72
G1X24.98
G1X26.24
G1X27.5
G1X28.76
G1X30.02
G1X31.28
G1X32.54
G1X33.8
G1Y449.83
G1Y451.17
G1Y452.5
G1X34.9
G1X36
G1X37.1
G1X38.2
G1Y451.17
G1Y449.83
G1Y448.5
G1X39.46
G1X40.72
G1X41.98
G1X43.24
G1X44.5
G1X45.76
G1X47.02
G1X48.28
G1X49.54
G1X50.8
G1Y449.83
G1Y451.17
G1Y452.5
G1X52.06
G1X53.32
G1X54.58
G1X55.84
G1X57.1
G1X58.36
G1X59.62
G1X60.88
G1X62.14
G1X63.4
G1Y451.17
G1Y449.83
G1Y448.5
G1X64.66
G1X65.92
G1X67.18
G1X68.44
G1X69.7
G1X70.96
G1X72.22
G1X73.48
G1X74.74
G1X76
G1Y449.83
G1Y451.17
G1Y452.5
G1X77.26
G1X78.52
G1X79.78
G1X81.04
G1X82.3
G1X83.56
G1X84.82
G1X86.08
G1X87.34
G1X88.6
G1Y451.17
G1Y449.83
G1Y448.5
G1X89.86
G1X91.12
G1X92.38
G1X93.64
G1X94.9
G1X96.16
G1X97.42
G1X98.68
G1X99.94
G1X101.2
G1Y449.83
G1Y451.17
G1Y452.5
G1X102.46
G1X103.72
G1X104.98
G1X106.24
G1X107.5
G1X108.76
G1X110.02
G1X111.28
G1X112.54
G1X113.8
G1Y451.17
G1Y449.83
G1Y448.5
G1X115.06
G1X116.32
G1X117.58
G1X118.84
G1X120.1
G1X121.36
G1X122.62
G1X123.88
G1X125.14
G1X126.4
G1Y449.83
G1Y451.17
G1Y452.5
G1X127.66
G1X128.92
G1X130.18
G1X131.44
G1X132.7
G1X133.96
G1X135.22
G1X136.48
G1X137.74
G1X139
G1Y451.17
G1Y449.83
G1Y448.5
G1X140.26
G1X141.52
G1X142.78
G1X144.04
G1X145.3
G1X146.56
G1X147.82
G1X149.08
G1X150.34
G1X151.6
G1Y449.83
G1Y451.17
G1Y452.5
G1X152.86
G1X154.12
G1X155.38
G1X156.64
G1X157.9
G1X159.16
G1X160.42
G1X161.68
G1X162.94
G1X164.2
G1Y451.17
G1Y449.83
G1Y448.5
G1X165.46
G1X166.72
G1X167.98
G1X169.24
G1X170.5
G1X171.76
G1X173.02
G1X174.28
G1X175.54
G1X176.8
G1Y447.27
G1Y446.04
G1Y444.81
G1Y443.59
G1Y442.36
G1Y441.13
G1Y439.9
G1X175.47
G1X174.13
G1X172.8
G1Y438.64
G1Y437.38
G1Y436.12
G1Y434.86
G1Y433.6
G1Y432.34
G1Y431.08
G1Y429.82
G1Y428.56
G1Y427.3
G1X174.13
G1X175.47
G1X176.8
G1Y426.04
G1Y424.78
G1Y423.52
G1Y422.26
G1Y421
G1Y419.74
G1Y418.48
G1Y417.22
G1Y415.96
G1Y414.7
G1X175.47
G1X174.13
G1X172.8
G1Y413.44
G1Y412.18
G1Y410.92
G1Y409.66
G1Y408.4
G1Y407.14
G1Y405.88
G1Y404.62
G1Y403.36
G1Y402.1
G1X174.13
G1X175.47
G1X176.8
G1Y400.84
G1Y399.58
G1Y398.32
G1Y397.06
G1Y395.8
G1Y394.54
G1Y393.28
G1Y392.02
G1Y390.76
G1Y389.5
G1X175.47
G1X174.13
G1X172.8
G1Y388.24
G1Y386.98
G1Y385.72
G1Y384.46
G1Y383.2
G1Y381.94
G1Y380.68
G1Y379.42
G1Y378.16
G1Y376.9
G1X174.13
G1X175.47
G1X176.8
G1Y375.64
G1Y374.38
G1Y373.12
G1Y371.86
G1Y370.6
G1Y369.34
G1Y368.08
G1Y366.82
G1Y365.56
G1Y364.3
G1X175.47
G1X174.13
G1X172.8
G1Y363.04
G1Y361.78
G1Y360.52
G1Y359.26
G1Y358
G1Y356.74
G1Y355.48
G1Y354.22
G1Y352.96
G1Y351.7
G1X174.13
G1X175.47
G1X176.8
G1Y350.44
G1Y349.18
G1Y347.92
G1Y346.66
G1Y345.4
G1Y344.14
G1Y342.88
G1Y341.62
G1Y340.36
G1Y339.1
G1X175.47
G1X174.13
G1X172.8
G1Y337.84
G1Y336.58
G1Y335.32
G1Y334.06
G1Y332.8
G1Y331.54
G1Y330.28
G1Y329.02
G1Y327.76
G1Y326.5
G1X174.13
G1X175.47
G1X176.8
G1Y325.24
G1Y323.98
G1Y322.72
G1Y321.46
G1Y320.2
G1Y318.94
G1Y317.68
G1Y316.42
G1Y315.16
G1Y313.9
G1X175.47
G1X174.13
G1X172.8
G1Y312.64
G1Y311.38
G1Y310.12
G1Y308.86
G1Y307.6
G1Y306.34
G1Y305.08
G1Y303.82
G1Y302.56
G1Y301.3
G1X174.13
G1X175.47
G1X176.8
G1Y300.04
G1Y298.78
G1Y297.52
G1Y296.26
G1Y295
G1Y293.74
G1Y292.48
G1Y291.22
G1Y289.96
G1Y288.7
G1X175.47
G1X174.13
G1X172.8
G1Y287.44
G1Y286.18
G1Y284.92
G1Y283.66
G1Y282.4
G1Y281.14
G1Y279.88
G1Y278.62
G1Y277.36
G1Y276.1
G1X174.13
G1X175.47
G1X176.8
G1Y274.84
G1Y273.58
G1Y272.32
G1Y271.06
G1Y269.8
G1Y268.54
G1Y267.28
G1Y266.02
G1Y264.76
G1Y263.5
G1X175.47
G1X174.13
G1X172.8
G1Y262.24
G1Y260.98
G1Y259.72
G1Y258.46
G1Y257.2
G1Y255.94
G1Y254.68
G1Y253.42
G1Y252.16
G1Y250.9
G1X174.13
G1X175.47
G1X176.8
G1Y249.64
G1Y248.38
G1Y247.12
G1Y245.86
G1Y244.6
G1Y243.34
G1Y242.08
G1Y240.82
G1Y239.56
G1Y238.3
G1X175.47
G1X174.13
G1X172.8
G1Y237.04
G1Y235.78
G1Y234.52
G1Y233.26
G1Y232
G1Y230.74
G1Y229.48
G1Y228.22
G1Y226.96
G1Y225.7
G1X174.13
G1X175.47
G1X176.8
G1Y224.44
G1Y223.18
G1Y221.92
G1Y220.66
G1Y219.4
G1Y218.14
G1Y216.88
G1Y215.62
G1Y214.36
G1Y213.1
G1X175.47
G1X174.13
G1X172.8
G1Y211.84
G1Y210.58
G1Y209.32
G1Y208.06
G1Y206.8
G1Y205.54
G1Y204.28
G1Y203.02
G1Y201.76
G1Y200.5
G1X174.13
G1X175.47
G1X176.8
G1Y199.24
G1Y197.98
G1Y196.72
G1Y195.46
G1Y194.2
G1Y192.94
G1Y191.68
G1Y190.42
G1Y189.16
G1Y187.9
G1X175.47
G1X174.13
G1X172.8
G1Y186.64
G1Y185.38
G1Y184.12
G1Y182.86
G1Y181.6
G1Y180.34
G1Y179.08
G1Y177.82
G1Y176.56
G1Y175.3
G1X174.13
G1X175.47
G1X176.8
G1Y174.04
G1Y172.78
G1Y171.52
G1Y170.26
G1Y169
G1Y167.74
G1Y166.48
G1Y165.22
G1Y163.96
G1Y162.7
G1X175.47
G1X174.13
G1X172.8
G1Y161.44
G1Y160.18
G1Y158.92
G1Y157.66
G1Y156.4
G1Y155.14
G1Y153.88
G1Y152.62
G1Y151.36
G1Y150.1
G1X174.13
G1X175.47
G1X176.8
G1Y148.84
G1Y147.58
G1Y146.32
G1Y145.06
G1Y143.8
G1Y142.54
G1Y141.28
G1Y140.02
G1Y138.76
G1Y137.5
G1X175.47
G1X174.13
G1X172.8
G1Y136.24
G1Y134.98
G1Y133.72
G1Y132.46
G1Y131.2
G1Y129.94
G1Y128.68
G1Y127.42
G1Y126.16
G1Y124.9
G1X174.13
G1X175.47
G1X176.8
G1Y123.64
G1Y122.38
G1Y121.12
G1Y119.86
G1Y118.6
G1Y117.34
G1Y116.08
G1Y114.82
G1Y113.56
G1Y112.3
G1X175.47
G1X174.13
G1X172.8
G1Y111.04
G1Y109.78
G1Y108.52
G1Y107.26
G1Y106
G1Y104.74
G1Y103.48
G1Y102.22
G1Y100.96
G1Y99.7
G1X174.13
G1X175.47
G1X176.8
G1Y98.44
G1Y97.18
G1Y95.92
G1Y94.66
G1Y93.4
G1Y92.14
G1Y90.88
G1Y89.62
G1Y88.36
G1Y87.1
G1X175.47
G1X174.13
G1X172.8
G1Y85.84
G1Y84.58
G1Y83.32
G1Y82.06
G1Y80.8
G1Y79.54
G1Y78.28
G1Y77.02
G1Y75.76
G1Y74.5
G1X174.13
G1X175.47
G1X176.8
G1Y73.24
G1Y71.98
G1Y70.72
G1Y69.46
G1Y68.2
G1Y66.94
G1Y65.68
G1Y64.42
G1Y63.16
G1Y61.9
G1X175.47
G1X174.13
G1X172.8
G1Y60.64
G1Y59.38
G1Y58.12
G1Y56.86
G1Y55.6
G1Y54.34
G1Y53.08
G1Y51.82
G1Y50.56
G1Y49.3
G1X174.13
G1X175.47
G1X176.8
G1Y48.04
G1Y46.78
G1Y45.52
G1Y44.26
G1Y43
G1Y41.74
G1Y40.48
G1Y39.22
G1Y37.96
G1Y36.7
G1X175.47
G1X174.13
G1X172.8
G1Y35.44
G1Y34.18
G1Y32.92
G1Y31.66
G1Y30.4
G1Y29.14
G1Y27.88
G1Y26.62
G1Y25.36
G1Y24.1
G1X174.13
G1X175.47
G1X176.8
G1Y22.87
G1Y21.64
G1Y20.41
G1Y19.19
G1Y17.96
G1Y16.73
G1Y15.5
G1X175.54
G1X174.28
G1X173.02
G1X171.76
G1X170.5
G1X169.24
G1X167.98
G1X166.72
G1X165.46
G1X164.2
G1Y14.17
G1Y12.83
G1Y11.5
G1X162.94
G1X161.68
G1X160.42
G1X159.16
G1X157.9
G1X156.64
G1X155.38
G1X154.12
G1X152.86
G1X151.6
G1Y12.83
G1Y14.17
G1Y15.5
G1X150.34
G1X149.08
G1X147.82
G1X146.56
G1X145.3
G1X144.04
G1X142.78
G1X141.52
G1X140.26
G1X139
G1Y14.17
G1Y12.83
G1Y11.5
G1X137.74
G1X136.48
G1X135.22
G1X133.96
G1X132.7
G1X131.44
G1X130.18
G1X128.92
G1X127.66
G1X126.4
G1Y12.83
G1Y14.17
G1Y15.5
G1X125.14
G1X123.88
G1X122.62
G1X121.36
G1X120.1
G1X118.84
G1X117.58
G1X116.32
G1X115.06
G1X113.8
G1Y14.17
G1Y12.83
G1Y11.5
G1X112.54
G1X111.28
G1X110.02
G1X108.76
G1X107.5
G1X106.24
G1X104.98
G1X103.72
G1X102.46
G1X101.2
G1Y12.83
G1Y14.17
G1Y15.5
G1X99.94
G1X98.68
G1X97.42
G1X96.16
G1X94.9
G1X93.64
G1X92.38
G1X91.12
G1X89.86
G1X88.6
G1Y14.17
G1Y12.83
G1Y11.5
G1X87.34
G1X86.08
G1X84.82
G1X83.56
G1X82.3
G1X81.04
G1X79.78
G1X78.52
G1X77.26
G1X76
G1Y12.83
G1Y14.17
G1Y15.5
G1X74.74
G1X73.48
G1X72.22
G1X70.96
G1X69.7
G1X68.44
G1X67.18
G1X65.92
G1X64.66
G1X63.4
G1Y14.17
G1Y12.83
G1Y11.5
G1X62.14
G1X60.88
G1X59.62
G1X58.36
G1X57.1
G1X55.84
G1X54.58
G1X53.32
G1X52.06
G1X50.8
G1Y12.83
G1Y14.17
G1Y15.5
G1X49.54
G1X48.28
G1X47.02
G1X45.76
G1X44.5
G1X43.24
G1X41.98
G1X40.72
G1X39.46
G1X38.2
G1Y14.17
G1Y12.83
G1Y11.5
G1X37.1
G1X36
G1X34.9
G1X33.8
G1Y12.83
G1Y14.17
G1Y15.5
G1X32.54
G1X31.28
G1X30.02
G1X28.76
G1X27.5
G1X26.24
G1X24.98
G1X23.72
G1X22.46
G1X21.2
G0X225.4Y52.14
; Layer Cut
G1X225.73Y51.37
G1X226.09Y50.61
G1X226.47Y49.86
G1X226.89Y49.14
G1X227.34Y48.43
G1X227.82Y47.74
G1X228.33Y47.08
G1X228.86Y46.43
G1X229.42Y45.81
G1X230.01Y45.21
G1X230.62Y44.64
G1X231.25Y44.09
G1X231.91Y43.57
G1X232.59Y43.08
G1X233.28Y42.61
G1X234Y42.18
G1X234.73Y41.78
G1X235.48Y41.4
G1X236.25Y41.06
G1X237.03Y40.75
G1X237.82Y40.48
G1X238.62Y40.24
G1X239.43Y40.03
G1X240.25Y39.85
G1X241.08Y39.71
G1X241.91Y39.61
G1X242.74Y39.54
G1X243.58Y39.5
G1X244.42
G1X245.26Y39.54
G1X246.09Y39.61
G1X246.92Y39.71
G1X247.75Y39.85
G1X248.57Y40.03
G1X249.38Y40.24
G1X250.18Y40.48
G1X250.97Y40.75
G1X251.75Y41.06
G1X252.52Y41.4
G1X253.27Y41.78
G1X254Y42.18
G1X254.72Y42.61
G1X255.41Y43.08
G1X256.09Y43.57
G1X256.75Y44.09
G1X257.38Y44.64
G1X257.99Y45.21
G1X258.58Y45.81
G1X259.14Y46.43
G1X259.67Y47.08
G1X260.18Y47.74
G1X260.66Y48.43
G1X261.11Y49.14
G1X261.53Y49.86
G1X261.91Y50.61
G1X262.27Y51.37
G1X262.6Y52.14
G1X262.89Y52.92
G1X263.15Y53.72
G1X263.37Y54.53
G1X263.56Y55.34
G1X263.72Y56.16
G1X263.84Y56.99
G1X263.93Y57.83
G1X263.98Y58.66
G1X264Y59.5
G1X263.98Y60.34
G1X263.93Y61.17
G1X263.84Y62.01
G1X263.72Y62.84
G1X263.56Y63.66
G1X263.37Y64.47
G1X263.15Y65.28
G1X262.89Y66.08
G1X262.6Y66.86
G1X262.27Y67.63
G1X261.91Y68.39
G1X261.53Y69.14
G1X261.11Y69.86
G1X260.66Y70.57
G1X260.18Y71.26
G1X259.67Y71.92
G1X259.14Y72.57
G1X258.58Y73.19
G1X257.99Y73.79
G1X257.38Y74.36
G1X256.75Y74.91
G1X256.09Y75.43
G1X255.41Y75.92
G1X254.72Y76.39
G1X254Y76.82
G1X253.27Y77.22
G1X252.52Y77.6
G1X251.75Y77.94
G1X250.97Y78.25
G1X250.18Y78.52
G1X249.38Y78.76
G1X248.57Y78.97
G1X247.75Y79.15
G1X246.92Y79.29
G1X246.09Y79.39
G1X245.26Y79.46
G1X244.42Y79.5
G1X243.58
G1X242.74Y79.46
G1X241.91Y79.39
G1X241.08Y79.29
G1X240.25Y79.15
G1X239.43Y78.97
G1X238.62Y78.76
G1X237.82Y78.52
G1X237.03Y78.25
G1X236.25Y77.94
G1X235.48Y77.6
G1X234.73Y77.22
G1X234Y76.82
G1X233.28Y76.39
G1X232.59Y75.92
G1X231.91Y75.43
G1X231.25Y74.91
G1X230.62Y74.36
G1X230.01Y73.79
G1X229.42Y73.19
G1X228.86Y72.57
G1X228.33Y71.92
G1X227.82Y71.26
G1X227.34Y70.57
G1X226.89Y69.86
G1X226.47Y69.14
G1X226.09Y68.39
G1X225.73Y67.63
G1X225.4Y66.86
G1X225.11Y66.08
G1X224.85Y65.28
G1X224.63Y64.47
G1X224.44Y63.66
G1X224.28Y62.84
G1X224.16Y62.01
G1X224.07Y61.17
G1X224.02Y60.34
G1X224Y59.5
G1X224.02Y58.66
G1X224.07Y57.83
G1X224.16Y56.99
G1X224.28Y56.16
G1X224.44Y55.34
G1X224.63Y54.53
G1X224.85Y53.72
G1X225.11Y52.92
G1X225.4Y52.14
G0X191.3Y47.3
; Layer Cut
G1X189.97
G1X188.63
G1X187.3
G1Y48.56
G1Y49.82
G1Y51.08
G1Y52.34
G1Y53.6
G1Y54.86
G1Y56.12
G1Y57.38
G1Y58.64
G1Y59.9
G1X188.63
G1X189.97
G1X191.3
G1Y61.16
G1Y62.42
G1Y63.68
G1Y64.94
G1Y66.2
G1Y67.46
G1Y68.72
G1Y69.98
G1Y71.24
G1Y72.5
G1X189.97
G1X188.63
G1X187.3
G1Y73.76
G1Y75.02
G1Y76.28
G1Y77.54
G1Y78.8
G1Y80.06
G1Y81.32
G1Y82.58
G1Y83.84
G1Y85.1
G1X188.63
G1X189.97
G1X191.3
G1Y86.36
G1Y87.62
G1Y88.88
G1Y90.14
G1Y91.4
G1Y92.66
G1Y93.92
G1Y95.18
G1Y96.44
G1Y97.7
G1X189.97
G1X188.63
G1X187.3
G1Y98.96
G1Y100.22
G1Y101.48
G1Y102.74
G1Y104
G1Y105.26
G1Y106.52
G1Y107.78
G1Y109.04
G1Y110.3
G1X188.63
G1X189.97
G1X191.3
G1Y111.56
G1Y112.82
G1Y114.08
G1Y115.34
G1Y116.6
G1Y117.86
G1Y119.12
G1Y120.38
G1Y121.64
G1Y122.9
G1X189.97
G1X188.63
G1X187.3
G1Y124.16
G1Y125.42
G1Y126.68
G1Y127.94
G1Y129.2
G1Y130.46
G1Y131.72
G1Y132.98
G1Y134.24
G1Y135.5
G1X188.63
G1X189.97
G1X191.3
G1Y136.76
G1Y138.02
G1Y139.28
G1Y140.54
G1Y141.8
G1Y143.06
G1Y144.32
G1Y145.58
G1Y146.84
G1Y148.1
G1X189.97
G1X188.63
G1X187.3
G1Y149.36
G1Y150.62
G1Y151.88
G1Y153.14
G1Y154.4
G1Y155.66
G1Y156.92
G1Y158.18
G1Y159.44
G1Y160.7
G1X188.63
G1X189.97
G1X191.3
G1Y161.96
G1Y163.22
G1Y164.48
G1Y165.74
G1Y167
G1Y168.26
G1Y169.52
G1Y170.78
G1Y172.04
G1Y173.3
G1X189.97
G1X188.63
G1X187.3
G1Y174.56
G1Y175.82
G1Y177.08
G1Y178.34
G1Y179.6
G1Y180.86
G1Y182.12
G1Y183.38
G1Y184.64
G1Y185.9
G1X188.63
G1X189.97
G1X191.3
G1Y187.16
G1Y188.42
G1Y189.68
G1Y190.94
G1Y192.2
G1Y193.46
G1Y194.72
G1Y195.98
G1Y197.24
G1Y198.5
G1X189.97
G1X188.63
G1X187.3
G1Y199.76
G1Y201.02
G1Y202.28
G1Y203.54
G1Y204.8
G1Y206.06
G1Y207.32
G1Y208.58
G1Y209.84
G1Y211.1
G1X188.63
G1X189.97
G1X191.3
G1Y212.36
G1Y213.62
G1Y214.88
G1Y216.14
G1Y217.4
G1Y218.66
G1Y219.92
G1Y221.18
G1Y222.44
G1Y223.7
G1X189.97
G1X188.63
G1X187.3
G1Y224.96
G1Y226.22
G1Y227.48
G1Y228.74
G1Y230
G1Y231.26
G1Y232.52
G1Y233.78
G1Y235.04
G1Y236.3
G1X188.63
G1X189.97
G1X191.3
G1Y237.56
G1Y238.82
G1Y240.08
G1Y241.34
G1Y242.6
G1Y243.86
G1Y245.12
G1Y246.38
G1Y247.64
G1Y248.9
G1X189.97
G1X188.63
G1X187.3
G1Y250.16
G1Y251.42
G1Y252.68
G1Y253.94
G1Y255.2
G1Y256.46
G1Y257.72
G1Y258.98
G1Y260.24
G1Y261.5
G1X188.63
G1X189.97
G1X191.3
G1Y262.76
G1Y264.02
G1Y265.28
G1Y266.54
G1Y267.8
G1Y269.06
G1Y270.32
G1Y271.58
G1Y272.84
G1Y274.1
G1X189.97
G1X188.63
G1X187.3
G1Y275.36
G1Y276.62
G1Y277.88
G1Y279.14
G1Y280.4
G1Y281.66
G1Y282.92
G1Y284.18
G1Y285.44
G1Y286.7
G1X188.63
G1X189.97
G1X191.3
G1Y287.96
G1Y289.22
G1Y290.48
G1Y291.74
G1Y293
G1Y294.26
G1Y295.52
G1Y296.78
G1Y298.04
G1Y299.3
G1X189.97
G1X188.63
G1X187.3
G1Y300.56
G1Y301.82
G1Y303.08
G1Y304.34
G1Y305.6
G1Y306.86
G1Y308.12
G1Y309.38
G1Y310.64
G1Y311.9
G1X188.63
G1X189.97
G1X191.3
G1Y313.16
G1Y314.42
G1Y315.68
G1Y316.94
G1Y318.2
G1Y319.46
G1Y320.72
G1Y321.98
G1Y323.24
G1Y324.5
G1X189.97
G1X188.63
G1X187.3
G1Y325.76
G1Y327.02
G1Y328.28
G1Y329.54
G1Y330.8
G1Y332.06
G1Y333.32
G1Y334.58
G1Y335.84
G1Y337.1
G1X188.63
G1X189.97
G1X191.3
G1Y338.36
G1Y339.62
G1Y340.88
G1Y342.14
G1Y343.4
G1Y344.66
G1Y345.92
G1Y347.18
G1Y348.44
G1Y349.7
G1X189.97
G1X188.63
G1X187.3
G1Y350.96
G1Y352.22
G1Y353.48
G1Y354.74
G1Y356
G1Y357.26
G1Y358.52
G1Y359.78
G1Y361.04
G1Y362.3
G1X188.63
G1X189.97
G1X191.3
G1Y363.56
G1Y364.82
G1Y366.08
G1Y367.34
G1Y368.6
G1Y369.86
G1Y371.12
G1Y372.38
G1Y373.64
G1Y374.9
G1X189.97
G1X188.63
G1X187.3
G1Y376.16
G1Y377.42
G1Y378.68
G1Y379.94
G1Y381.2
G1Y382.46
G1Y383.72
G1Y384.98
G1Y386.24
G1Y387.5
G1X188.63
G1X189.97
G1X191.3
G1Y388.76
G1Y390.02
G1Y391.28
G1Y392.54
G1Y393.8
G1Y395.06
G1Y396.32
G1Y397.58
G1Y398.84
G1Y400.1
G1X189.97
G1X188.63
G1X187.3
G1Y401.36
G1Y402.62
G1Y403.88
G1Y405.14
G1Y406.4
G1Y407.66
G1Y408.92
G1Y410.18
G1Y411.44
G1Y412.7
G1X188.63
G1X189.97
G1X191.3
G1Y413.96
G1Y415.22
G1Y416.48
G1Y417.74
G1Y419
G1Y420.26
G1Y421.52
G1Y422.78
G1Y424.04
G1Y425.3
G1X189.97
G1X188.63
G1X187.3
G1Y426.56
G1Y427.82
G1Y429.08
G1Y430.34
G1Y431.6
G1Y432.86
G1Y434.12
G1Y435.38
G1Y436.64
G1Y437.9
G1X188.63
G1X189.97
G1X191.3
G1Y439.13
G1Y440.36
G1Y441.59
G1Y442.81
G1Y444.04
G1Y445.27
G1Y446.5
G1X192.53
G1X193.76
G1X194.99
G1X196.21
G1X197.44
G1X198.67
G1X199.9
G1Y447.83
G1Y449.17
G1Y450.5
G1X201.16
G1X202.42
G1X203.68
G1X204.94
G1X206.2
G1X207.46
G1X208.72
G1X209.98
G1X211.24
G1X212.5
G1Y449.17
G1Y447.83
G1Y446.5
G1X213.76
G1X215.02
G1X216.28
G1X217.54
G1X218.8
G1X220.06
G1X221.32
G1X222.58
G1X223.84
G1X225.1
G1Y447.83
G1Y449.17
G1Y450.5
G1X226.36
G1X227.62
G1X228.88
G1X230.14
G1X231.4
G1X232.66
G1X233.92
G1X235.18
G1X236.44
G1X237.7
G1Y449.17
G1Y447.83
G1Y446.5
G1X238.96
G1X240.22
G1X241.48
G1X242.74
G1X244
G1X245.26
G1X246.52
G1X247.78
G1X249.04
G1X250.3
G1Y447.83
G1Y449.17
G1Y450.5
G1X251.56
G1X252.82
G1X254.08
G1X255.34
G1X256.6
G1X257.86
G1X259.12
G1X260.38
G1X261.64
G1X262.9
G1Y449.17
G1Y447.83
G1Y446.5
G1X264.16
G1X265.42
G1X266.68
G1X267.94
G1X269.2
G1X270.46
G1X271.72
G1X272.98
G1X274.24
G1X275.5
G1Y447.83
G1Y449.17
G1Y450.5
G1X276.76
G1X278.02
G1X279.28
G1X280.54
G1X281.8
G1X283.06
G1X284.32
G1X285.58
G1X286.84
G1X288.1
G1Y449.17
G1Y447.83
G1Y446.5
G1X289.36
G1X290.62
G1X291.88
G1X293.14
G1X294.4
G1X295.66
G1X296.92
G1X298.18
G1X299.44
G1X300.7
G1Y445.17
G1Y443.84
G1Y442.5
G1Y441.17
G1Y439.84
G1Y438.51
G1Y437.17
G1Y435.84
G1Y434.51
G1Y433.18
G1Y431.84
G1Y430.51
G1Y429.18
G1Y427.85
G1Y426.52
G1Y425.18
G1Y423.85
G1Y422.52
G1Y421.19
G1Y419.85
G1Y418.52
G1Y417.19
G1Y415.86
G1Y414.52
G1Y413.19
G1Y411.86
G1Y410.53
G1Y409.2
G1Y407.86
G1Y406.53
G1Y405.2
G1Y403.87
G1Y402.53
G1Y401.2
G1Y399.87
G1Y398.54
G1Y397.2
G1Y395.87
G1Y394.54
G1Y393.21
G1Y391.88
G1Y390.54
G1Y389.21
G1Y387.88
G1Y386.55
G1Y385.21
G1Y383.88
G1Y382.55
G1Y381.22
G1Y379.88
G1Y378.55
G1Y377.22
G1Y375.89
G1Y374.56
G1Y373.22
G1Y371.89
G1Y370.56
G1Y369.23
G1Y367.89
G1Y366.56
G1Y365.23
G1Y363.9
G1Y362.56
G1Y361.23
G1Y359.9
G1Y358.57
G1Y357.24
G1Y355.9
G1Y354.57
G1Y353.24
G1Y351.91
G1Y350.57
G1Y349.24
G1Y347.91
G1Y346.58
G1Y345.24
G1Y343.91
G1Y342.58
G1Y341.25
G1Y339.92
G1Y338.58
G1Y337.25
G1Y335.92
G1Y334.59
G1Y333.25
G1Y331.92
G1Y330.59
G1Y329.26
G1Y327.92
G1Y326.59
G1Y325.26
G1Y323.93
G1Y322.6
G1Y321.26
G1Y319.93
G1Y318.6
G1Y317.27
G1Y315.93
G1Y314.6
G1Y313.27
G1Y311.94
G1Y310.6
G1Y309.27
G1Y307.94
G1Y306.61
G1Y305.28
G1Y303.94
G1Y302.61
G1Y301.28
G1Y299.95
G1Y298.61
G1Y297.28
G1Y295.95
G1Y294.62
G1Y293.28
G1Y291.95
G1Y290.62
G1Y289.29
G1Y287.96
G1Y286.62
G1Y285.29
G1Y283.96
G1Y282.63
G1Y281.29
G1Y279.96
G1Y278.63
G1Y277.3
G1Y275.96
G1Y274.63
G1Y273.3
G1Y271.97
G1Y270.64
G1Y269.3
G1Y267.97
G1Y266.64
G1Y265.31
G1Y263.97
G1Y262.64
G1Y261.31
G1Y259.98
G1Y258.64
G1Y257.31
G1Y255.98
G1Y254.65
G1Y253.32
G1Y251.98
G1Y250.65
G1Y249.32
G1Y247.99
G1Y246.65
G1Y245.32
G1Y243.99
G1Y242.66
G1Y241.32
G1Y239.99
G1Y238.66
G1Y237.33
G1Y236
G1Y234.66
G1Y233.33
G1Y232
G1Y230.67
G1Y229.33
G1Y228
G1Y226.67
G1Y225.34
G1Y224
G1Y222.67
G1Y221.34
G1Y220.01
G1Y218.68
G1Y217.34
G1Y216.01
G1Y214.68
G1Y213.35
G1Y212.01
G1Y210.68
G1Y209.35
G1Y208.02
G1Y206.68
G1Y205.35
G1Y204.02
G1Y202.69
G1Y201.36
G1Y200.02
G1Y198.69
G1Y197.36
G1Y196.03
G1Y194.69
G1Y193.36
G1Y192.03
G1Y190.7
G1Y189.36
G1Y188.03
G1Y186.7
G1Y185.37
G1Y184.04
G1Y182.7
G1Y181.37
G1Y180.04
G1Y178.71
G1Y177.37
G1Y176.04
G1Y174.71
G1Y173.38
G1Y172.04
G1Y170.71
G1Y169.38
G1Y168.05
G1Y166.72
G1Y165.38
G1Y164.05
G1Y162.72
G1Y161.39
G1Y160.05
G1Y158.72
G1Y157.39
G1Y156.06
G1Y154.72
G1Y153.39
G1Y152.06
G1Y150.73
G1Y149.4
G1Y148.06
G1Y146.73
G1Y145.4
G1Y144.07
G1Y142.73
G1Y141.4
G1Y140.07
G1Y138.74
G1Y137.4
G1Y136.07
G1Y134.74
G1Y133.41
G1Y132.08
G1Y130.74
G1Y129.41
G1Y128.08
G1Y126.75
G1Y125.41
G1Y124.08
G1Y122.75
G1Y121.42
G1Y120.08
G1Y118.75
G1Y117.42
G1Y116.09
G1Y114.76
G1Y113.42
G1Y112.09
G1Y110.76
G1Y109.43
G1Y108.09
G1Y106.76
G1Y105.43
G1Y104.1
G1Y102.76
G1Y101.43
G1Y100.1
G1Y98.77
G1Y97.44
G1Y96.1
G1Y94.77
G1Y93.44
G1Y92.11
G1Y90.77
G1Y89.44
G1Y88.11
G1Y86.78
G1Y85.44
G1Y84.11
G1Y82.78
G1Y81.45
G1Y80.12
G1Y78.78
G1Y77.45
G1Y76.12
G1Y74.79
G1Y73.45
G1Y72.12
G1Y70.79
G1Y69.46
G1Y68.12
G1Y66.79
G1Y65.46
G1Y64.13
G1Y62.8
G1Y61.46
G1Y60.13
G1Y58.8
G1Y57.47
G1Y56.13
G1Y54.8
G1Y53.47
G1Y52.14
G1Y50.8
G1Y49.47
G1Y48.14
G1Y46.81
G1Y45.48
G1Y44.14
G1Y42.81
G1Y41.48
G1Y40.15
G1Y38.81
G1Y37.48
G1Y36.15
G1Y34.82
G1Y33.48
G1Y32.15
G1Y30.82
G1Y29.49
G1Y28.16
G1Y26.82
G1Y25.49
G1Y24.16
G1Y22.83
G1Y21.49
G1Y20.16
G1Y18.83
G1Y17.5
G1Y16.16
G1Y14.83
G1Y13.5
G1X299.44
G1X298.18
G1X296.92
G1X295.66
G1X294.4
G1X293.14
G1X291.88
G1X290.62
G1X289.36
G1X288.1
G1Y12.17
G1Y10.83
G1Y9.5
G1X286.84
G1X285.58
G1X284.32
G1X283.06
G1X281.8
G1X280.54
G1X279.28
G1X278.02
G1X276.76
G1X275.5
G1Y10.83
G1Y12.17
G1Y13.5
G1X274.24
G1X272.98
G1X271.72
G1X270.46
G1X269.2
G1X267.94
G1X266.68
G1X265.42
G1X264.16
G1X262.9
G1Y12.17
G1Y10.83
G1Y9.5
G1X261.64
G1X260.38
G1X259.12
G1X257.86
G1X256.6
G1X255.34
G1X254.08
G1X252.82
G1X251.56
G1X250.3
G1Y10.83
G1Y12.17
G1Y13.5
G1X249.04
G1X247.78
G1X246.52
G1X245.26
G1X244
G1X242.74
G1X241.48
G1X240.22
G1X238.96
G1X237.7
G1Y12.17
G1Y10.83
G1Y9.5
G1X236.44
G1X235.18
G1X233.92
G1X232.66
G1X231.4
G1X230.14
G1X228.88
G1X227.62
G1X226.36
G1X225.1
G1Y10.83
G1Y12.17
G1Y13.5
G1X223.84
G1X222.58
G1X221.32
G1X220.06
G1X218.8
G1X217.54
G1X216.28
G1X215.02
G1X213.76
G1X212.5
G1Y12.17
G1Y10.83
G1Y9.5
G1X211.24
G1X209.98
G1X208.72
G1X207.46
G1X206.2
G1X204.94
G1X203.68
G1X202.42
G1X201.16
G1X199.9
G1Y10.83
G1Y12.17
G1Y13.5
G1X198.67
G1X197.44
G1X196.21
G1X194.99
G1X193.76
G1X192.53
G1X191.3
G1Y14.73
G1Y15.96
G1Y17.19
G1Y18.41
G1Y19.64
G1Y20.87
G1Y22.1
G1X189.97
G1X188.63
G1X187.3
G1Y23.36
G1Y24.62
G1Y25.88
G1Y27.14
G1Y28.4
G1Y29.66
G1Y30.92
G1Y32.18
G1Y33.44
G1Y34.7
G1X188.63
G1X189.97
G1X191.3
G1Y35.96
G1Y37.22
G1Y38.48
G1Y39.74
G1Y41
G1Y42.26
G1Y43.52
G1Y44.78
G1Y46.04
G1Y47.3
G0X324.9Y154.5
; Layer Cut
G1X326.16
G1X327.42
G1X328.68
G1X329.94
G1X331.2
G1X332.46
G1X333.72
G1X334.98
G1X336.24
G1X337.5
G1Y155.83
G1Y157.17
G1Y158.5
G1X336.24
G1X334.98
G1X333.72
G1X332.46
G1X331.2
G1X329.94
G1X328.68
G1X327.42
G1X326.16
G1X324.9
G1Y157.17
G1Y155.83
G1Y154.5
G0X400.5Y154.5
; Layer Cut
G1X401.76
G1X403.02
G1X404.28
G1X405.54
G1X406.8
G1X408.06
G1X409.32
G1X410.58
G1X411.84
G1X413.1
G1Y155.83
G1Y157.17
G1Y158.5
G1X411.84
G1X410.58
G1X409.32
G1X408.06
G1X406.8
G1X405.54
G1X404.28
G1X403.02
G1X401.76
G1X400.5
G1Y157.17
G1Y155.83
G1Y154.5
G0X412.88Y149.21
; Layer Cut
G1X412.81Y149.13
G1X412.74Y149.05
G1X412.68Y148.97
G1X412.62Y148.88
G1X412.56Y148.8
G1X412.51Y148.7
G1X412.46Y148.61
G1X412.42Y148.52
G1X412.38Y148.42
G1X412.34Y148.32
G1X412.31Y148.22
G1X412.28Y148.12
G1X412.25Y148.02
G1X412.24Y147.92
G1X412.22Y147.81
G1X412.21Y147.71
G1Y147.6
G1Y147.5
G1Y147.4
G1Y147.29
G1X412.22Y147.19
G1X412.24Y147.08
G1X412.25Y146.98
G1X412.28Y146.88
G1X412.31Y146.78
G1X412.34Y146.68
G1X412.38Y146.58
G1X412.42Y146.48
G1X412.46Y146.39
G1X412.51Y146.3
G1X412.56Y146.2
G1X412.62Y146.12
G1X412.68Y146.03
G1X412.74Y145.95
G1X412.81Y145.87
G1X412.88Y145.79
G1X412.95Y145.71
G1X413.03Y145.64
G1X413.11Y145.57
G1X413.19Y145.51
G1X413.27Y145.45
G1X413.36Y145.39
G1X413.45Y145.33
G1X413.54Y145.28
G1X413.64Y145.24
G1X413.73Y145.2
G1X413.83Y145.16
G1X413.93Y145.12
G1X414.03Y145.09
G1X414.13Y145.07
G1X414.23Y145.04
G1X414.33Y145.03
G1X414.44Y145.01
G1X414.54
G1X414.65
G1X414.75
G1X414.86
G1X414.96
G1X415.07Y145.03
G1X415.17Y145.04
G1X415.27Y145.07
G1X415.37Y145.09
G1X415.47Y145.12
G1X415.57Y145.16
G1X415.67Y145.2
G1X415.76Y145.24
G1X415.86Y145.28
G1X415.95Y145.33
G1X416.04Y145.39
G1X416.13Y145.45
G1X416.21Y145.51
G1X416.29Y145.57
G1X416.37Y145.64
G1X416.45Y145.71
G1X416.52Y145.79
G1X416.59Y145.87
G1X416.66Y145.95
G1X416.72Y146.03
G1X416.78Y146.12
G1X416.84Y146.2
G1X416.89Y146.3
G1X416.94Y146.39
G1X416.98Y146.48
G1X417.02Y146.58
G1X417.06Y146.68
G1X417.09Y146.78
G1X417.12Y146.88
G1X417.15Y146.98
G1X417.17Y147.08
G1X417.18Y147.19
G1X417.19Y147.29
G1Y147.4
G1Y147.5
G1Y147.6
G1Y147.71
G1X417.18Y147.81
G1X417.17Y147.92
G1X417.15Y148.02
G1X417.12Y148.12
G1X417.09Y148.22
G1X417.06Y148.32
G1X417.02Y148.42
G1X416.98Y148.52
G1X416.94Y148.61
G1X416.89Y148.7
G1X416.84Y148.8
G1X416.78Y148.88
G1X416.72Y148.97
G1X416.66Y149.05
G1X416.59Y149.13
G1X416.52Y149.21
G1X416.45Y149.29
G1X416.37Y149.36
G1X416.29Y149.43
G1X416.21Y149.49
G1X416.13Y149.55
G1X416.04Y149.61
G1X415.95Y149.67
G1X415.86Y149.72
G1X415.76Y149.76
G1X415.67Y149.8
G1X415.57Y149.84
G1X415.47Y149.88
G1X415.37Y149.91
G1X415.27Y149.93
G1X415.17Y149.96
G1X415.07Y149.97
G1X414.96Y149.99
G1X414.86
G1X414.75
G1X414.65
G1X414.54
G1X414.44
G1X414.33Y149.97
G1X414.23Y149.96
G1X414.13Y149.93
G1X414.03Y149.91
G1X413.93Y149.88
G1X413.83Y149.84
G1X413.73Y149.8
G1X413.64Y149.76
G1X413.54Y149.72
G1X413.45Y149.67
G1X413.36Y149.61
G1X413.27Y149.55
G1X413.19Y149.49
G1X413.11Y149.43
G1X413.03Y149.36
G1X412.95Y149.29
G1X412.88Y149.21
G0X413.65Y191.5
; Layer Cut
G1X413.75
G1X413.86
G1X413.96
G1X414.07Y191.53
G1X414.17Y191.54
G1X414.27Y191.57
G1X414.37Y191.59
G1X414.47Y191.62
G1X414.57Y191.66
G1X414.67Y191.69
G1X414.76Y191.74
G1X414.86Y191.78
G1X414.95Y191.83
G1X415.04Y191.89
G1X415.13Y191.95
G1X415.21Y192.01
G1X415.29Y192.07
G1X415.37Y192.14
G1X415.45Y192.21
G1X415.52Y192.29
G1X415.59Y192.37
G1X415.66Y192.45
G1X415.72Y192.53
G1X415.78Y192.62
G1X415.84Y192.7
G1X415.89Y192.8
G1X415.94Y192.89
G1X415.98Y192.98
G1X416.02Y193.08
G1X416.06Y193.18
G1X416.09Y193.28
G1X416.12Y193.38
G1X416.14Y193.48
G1X416.16Y193.58
G1X416.18Y193.69
G1X416.19Y193.79
G1Y193.89
G1Y194
G1Y194.1
G1Y194.21
G1X416.18Y194.31
G1X416.16Y194.42
G1X416.14Y194.52
G1X416.12Y194.62
G1X416.09Y194.72
G1X416.06Y194.82
G1X416.02Y194.92
G1X415.98Y195.02
G1X415.94Y195.11
G1X415.89Y195.2
G1X415.84Y195.29
G1X415.78Y195.38
G1X415.72Y195.47
G1X415.66Y195.55
G1X415.59Y195.63
G1X415.52Y195.71
G1X415.45Y195.79
G1X415.37Y195.86
G1X415.29Y195.93
G1X415.21Y195.99
G1X415.13Y196.05
G1X415.04Y196.11
G1X414.95Y196.16
G1X414.86Y196.22
G1X414.76Y196.26
G1X414.67Y196.3
G1X414.57Y196.34
G1X414.47Y196.38
G1X414.37Y196.41
G1X414.27Y196.43
G1X414.17Y196.46
G1X414.07Y196.47
G1X413.96Y196.49
G1X413.86
G1X413.75
G1X413.65
G1X413.54
G1X413.44
G1X413.33Y196.47
G1X413.23Y196.46
G1X413.13Y196.43
G1X413.03Y196.41
G1X412.93Y196.38
G1X412.83Y196.34
G1X412.73Y196.3
G1X412.64Y196.26
G1X412.54Y196.22
G1X412.45Y196.16
G1X412.36Y196.11
G1X412.27Y196.05
G1X412.19Y195.99
G1X412.11Y195.93
G1X412.03Y195.86
G1X411.95Y195.79
G1X411.88Y195.71
G1X411.81Y195.63
G1X411.74Y195.55
G1X411.68Y195.47
G1X411.62Y195.38
G1X411.56Y195.29
G1X411.51Y195.2
G1X411.46Y195.11
G1X411.42Y195.02
G1X411.38Y194.92
G1X411.34Y194.82
G1X411.31Y194.72
G1X411.28Y194.62
G1X411.25Y194.52
G1X411.23Y194.42
G1X411.22Y194.31
G1X411.21Y194.21
G1Y194.1
G1Y194
G1Y193.89
G1Y193.79
G1X411.22Y193.69
G1X411.23Y193.58
G1X411.25Y193.48
G1X411.28Y193.38
G1X411.31Y193.28
G1X411.34Y193.18
G1X411.38Y193.08
G1X411.42Y192.98
G1X411.46Y192.89
G1X411.51Y192.8
G1X411.56Y192.7
G1X411.62Y192.62
G1X411.68Y192.53
G1X411.74Y192.45
G1X411.81Y192.37
G1X411.88Y192.29
G1X411.95Y192.21
G1X412.03Y192.14
G1X412.11Y192.07
G1X412.19Y192.01
G1X412.27Y191.95
G1X412.36Y191.89
G1X412.45Y191.83
G1X412.54Y191.78
G1X412.64Y191.74
G1X412.73Y191.69
G1X412.83Y191.66
G1X412.93Y191.62
G1X413.03Y191.59
G1X413.13Y191.57
G1X413.23Y191.54
G1X413.33Y191.53
G1X413.44Y191.51
G1X413.54
G1X413.65
G0X413.65Y313
; Layer Cut
G1X413.75
G1X413.86
G1X413.96
G1X414.07Y313.03
G1X414.17Y313.04
G1X414.27Y313.07
G1X414.37Y313.09
G1X414.47Y313.12
G1X414.57Y313.16
G1X414.67Y313.2
G1X414.76Y313.24
G1X414.86Y313.28
G1X414.95Y313.33
G1X415.04Y313.39
G1X415.13Y313.45
G1X415.21Y313.51
G1X415.29Y313.57
G1X415.37Y313.64
G1X415.45Y313.71
G1X415.52Y313.79
G1X415.59Y313.87
G1X415.66Y313.95
G1X415.72Y314.03
G1X415.78Y314.12
G1X415.84Y314.2
G1X415.89Y314.3
G1X415.94Y314.39
G1X415.98Y314.48
G1X416.02Y314.58
G1X416.06Y314.68
G1X416.09Y314.78
G1X416.12Y314.88
G1X416.14Y314.98
G1X416.16Y315.08
G1X416.18Y315.19
G1X416.19Y315.29
G1Y315.4
G1Y315.5
G1Y315.6
G1Y315.71
G1X416.18Y315.81
G1X416.16Y315.92
G1X416.14Y316.02
G1X416.12Y316.12
G1X416.09Y316.22
G1X416.06Y316.32
G1X416.02Y316.42
G1X415.98Y316.52
G1X415.94Y316.61
G1X415.89Y316.7
G1X415.84Y316.8
G1X415.78Y316.88
G1X415.72Y316.97
G1X415.66Y317.05
G1X415.59Y317.13
G1X415.52Y317.21
G1X415.45Y317.29
G1X415.37Y317.36
G1X415.29Y317.43
G1X415.21Y317.49
G1X415.13Y317.55
G1X415.04Y317.61
G1X414.95Y317.67
G1X414.86Y317.72
G1X414.76Y317.76
G1X414.67Y317.8
G1X414.57Y317.84
G1X414.47Y317.88
G1X414.37Y317.91
G1X414.27Y317.93
G1X414.17Y317.96
G1X414.07Y317.97
G1X413.96Y317.99
G1X413.86
G1X413.75
G1X413.65
G1X413.54
G1X413.44
G1X413.33Y317.97
G1X413.23Y317.96
G1X413.13Y317.93
G1X413.03Y317.91
G1X412.93Y317.88
G1X412.83Y317.84
G1X412.73Y317.8
G1X412.64Y317.76
G1X412.54Y317.72
G1X412.45Y317.67
G1X412.36Y317.61
G1X412.27Y317.55
G1X412.19Y317.49
G1X412.11Y317.43
G1X412.03Y317.36
G1X411.95Y317.29
G1X411.88Y317.21
G1X411.81Y317.13
G1X411.74Y317.05
G1X411.68Y316.97
G1X411.62Y316.88
G1X411.56Y316.8
G1X411.51Y316.7
G1X411.46Y316.61
G1X411.42Y316.52
G1X411.38Y316.42
G1X411.34Y316.32
G1X411.31Y316.22
G1X411.28Y316.12
G1X411.25Y316.02
G1X411.23Y315.92
G1X411.22Y315.81
G1X411.21Y315.71
G1Y315.6
G1Y315.5
G1Y315.4
G1Y315.29
G1X411.22Y315.19
G1X411.23Y315.08
G1X411.25Y314.98
G1X411.28Y314.88
G1X411.31Y314.78
G1X411.34Y314.68
G1X411.38Y314.58
G1X411.42Y314.48
G1X411.46Y314.39
G1X411.51Y314.3
G1X411.56Y314.2
G1X411.62Y314.12
G1X411.68Y314.03
G1X411.74Y313.95
G1X411.81Y313.87
G1X411.88Y313.79
G1X411.95Y313.71
G1X412.03Y313.64
G1X412.11Y313.57
G1X412.19Y313.51
G1X412.27Y313.45
G1X412.36Y313.39
G1X412.45Y313.33
G1X412.54Y313.28
G1X412.64Y313.24
G1X412.73Y313.2
G1X412.83Y313.16
G1X412.93Y313.12
G1X413.03Y313.09
G1X413.13Y313.07
G1X413.23Y313.04
G1X413.33Y313.03
G1X413.44Y313.01
G1X413.54
G1X413.65
G0X412.1Y322.5
; Layer Cut
G1Y323.83
G1Y325.17
G1Y326.5
G1X410.84
G1X409.58
G1X408.32
G1X407.06
G1X405.8
G1X404.54
G1X403.28
G1X402.02
G1X400.76
G1X399.5
G1Y325.17
G1Y323.83
G1Y322.5
G1X400.76
G1X402.02
G1X403.28
G1X404.54
G1X405.8
G1X407.06
G1X408.32
G1X409.58
G1X410.84
G1X412.1
G0X336.5Y322.5
; Layer Cut
G1Y323.83
G1Y325.17
G1Y326.5
G1X335.24
G1X333.98
G1X332.72
G1X331.46
G1X330.2
G1X328.94
G1X327.68
G1X326.42
G1X325.16
G1X323.9
G1Y325.17
G1Y323.83
G1Y322.5
G1X325.16
G1X326.42
G1X327.68
G1X328.94
G1X330.2
G1X331.46
G1X332.72
G1X333.98
G1X335.24
G1X336.5
G0X342.8Y326.5
; Layer Cut
G1X342.13Y327.55
G1X341.47Y328.6
G1X340.8Y329.65
G1X340.13Y330.7
G1X339.47Y331.75
G1X338.8Y332.8
G1X338.13Y333.85
G1X337.47Y334.9
G1X336.8Y335.95
G1X336.13Y337
G1X335.47Y338.05
G1X334.8Y339.1
G1X333.49
G1X332.19
G1X330.88
G1X329.58
G1X328.27
G1X326.97
G1X325.66
G1X324.36
G1X323.05
G1X321.74
G1X320.44
G1X319.13
G1X317.83
G1X316.52
G1X315.22
G1X313.91
G1X312.61
G1X311.3
G1Y337.77
G1Y336.45
G1Y335.12
G1Y333.79
G1Y332.47
G1Y331.14
G1Y329.82
G1Y328.49
G1Y327.16
G1Y325.84
G1Y324.51
G1Y323.18
G1Y321.86
G1Y320.53
G1Y319.21
G1Y317.88
G1Y316.55
G1Y315.23
G1Y313.9
G1X312.63
G1X313.97
G1X315.3
G1Y312.64
G1Y311.38
G1Y310.12
G1Y308.86
G1Y307.6
G1Y306.34
G1Y305.08
G1Y303.82
G1Y302.56
G1Y301.3
G1X313.97
G1X312.63
G1X311.3
G1Y300.04
G1Y298.78
G1Y297.52
G1Y296.26
G1Y295
G1Y293.74
G1Y292.48
G1Y291.22
G1Y289.96
G1Y288.7
G1X312.63
G1X313.97
G1X315.3
G1Y287.44
G1Y286.18
G1Y284.92
G1Y283.66
G1Y282.4
G1Y281.14
G1Y279.88
G1Y278.62
G1Y277.36
G1Y276.1
G1X313.97
G1X312.63
G1X311.3
G1Y274.84
G1Y273.58
G1Y272.32
G1Y271.06
G1Y269.8
G1Y268.54
G1Y267.28
G1Y266.02
G1Y264.76
G1Y263.5
G1X312.63
G1X313.97
G1X315.3
G1Y262.24
G1Y260.98
G1Y259.72
G1Y258.46
G1Y257.2
G1Y255.94
G1Y254.68
G1Y253.42
G1Y252.16
G1Y250.9
G1X313.97
G1X312.63
G1X311.3
G1Y249.64
G1Y248.38
G1Y247.12
G1Y245.86
G1Y244.6
G1Y243.34
G1Y242.08
G1Y240.82
G1Y239.56
G1Y238.3
G1X312.63
G1X313.97
G1X315.3
G1Y237.04
G1Y235.78
G1Y234.52
G1Y233.26
G1Y232
G1Y230.74
G1Y229.48
G1Y228.22
G1Y226.96
G1Y225.7
G1X313.97
G1X312.63
G1X311.3
G1Y224.44
G1Y223.18
G1Y221.92
G1Y220.66
G1Y219.4
G1Y218.14
G1Y216.88
G1Y215.62
G1Y214.36
G1Y213.1
G1X312.63
G1X313.97
G1X315.3
G1Y211.84
G1Y210.58
G1Y209.32
G1Y208.06
G1Y206.8
G1Y205.54
G1Y204.28
G1Y203.02
G1Y201.76
G1Y200.5
G1X313.97
G1X312.63
G1X311.3
G1Y199.24
G1Y197.98
G1Y196.72
G1Y195.46
G1Y194.2
G1Y192.94
G1Y191.68
G1Y190.42
G1Y189.16
G1Y187.9
G1X312.63
G1X313.97
G1X315.3
G1Y186.8
G1Y185.7
G1Y184.6
G1Y183.5
G1X316.6
G1X317.9
G1X319.2
G1X320.5
G1X321.8
G1X323.1
G1X324.4
G1X325.7
G1X327
G1X328.3
G1X329.6
G1X330.9
G1X332.2
G1X333.5
G1X334.8
G1X335.47Y182.45
G1X336.13Y181.4
G1X336.8Y180.35
G1X337.47Y179.3
G1X338.13Y178.25
G1X338.8Y177.2
G1X339.47Y176.15
G1X340.13Y175.1
G1X340.8Y174.05
G1X341.47Y173
G1X342.13Y171.95
G1X342.8Y170.9
G1X344.13
G1X345.45
G1X346.78
G1X348.11
G1X349.43
G1X350.76
G1X352.08
G1X353.41
G1X354.74
G1X356.06
G1X357.39
G1X358.72
G1X360.04
G1X361.37
G1X362.69
G1X364.02
G1X365.35
G1X366.67
G1X368
G1X369.33
G1X370.65
G1X371.98
G1X373.31
G1X374.63
G1X375.96
G1X377.28
G1X378.61
G1X379.94
G1X381.26
G1X382.59
G1X383.92
G1X385.24
G1X386.57
G1X387.89
G1X389.22
G1X390.55
G1X391.87
G1X393.2
G1X393.87Y171.95
G1X394.53Y173
G1X395.2Y174.05
G1X395.87Y175.1
G1X396.53Y176.15
G1X397.2Y177.2
G1X397.87Y178.25
G1X398.53Y179.3
G1X399.2Y180.35
G1X399.87Y181.4
G1X400.53Y182.45
G1X401.2Y183.5
G1X402.51
G1X403.81
G1X405.12
G1X406.42
G1X407.73
G1X409.03
G1X410.34
G1X411.64
G1X412.95
G1X414.26
G1X415.56
G1X416.87
G1X418.17
G1X419.48
G1X420.78
G1X422.09
G1X423.39
G1X424.7
G1Y184.83
G1Y186.16
G1Y187.49
G1Y188.82
G1Y190.15
G1Y191.48
G1Y192.81
G1Y194.14
G1Y195.47
G1Y196.8
G1Y198.13
G1Y199.46
G1Y200.79
G1Y202.12
G1Y203.45
G1Y204.78
G1Y206.11
G1Y207.44
G1Y208.77
G1Y210.1
G1Y211.43
G1Y212.76
G1Y214.09
G1Y215.42
G1Y216.75
G1Y218.08
G1Y219.41
G1Y220.74
G1Y222.07
G1Y223.4
G1Y224.73
G1Y226.06
G1Y227.39
G1Y228.72
G1Y230.05
G1Y231.38
G1Y232.71
G1Y234.04
G1Y235.37
G1Y236.7
G1Y238.03
G1Y239.36
G1Y240.69
G1Y242.02
G1Y243.35
G1Y244.68
G1Y246.01
G1Y247.34
G1Y248.67
G1Y250
G1Y251.33
G1Y252.66
G1Y253.99
G1Y255.32
G1Y256.65
G1Y257.98
G1Y259.31
G1Y260.64
G1Y261.96
G1Y263.29
G1Y264.62
G1Y265.95
G1Y267.28
G1Y268.61
G1Y269.94
G1Y271.27
G1Y272.6
G1Y273.93
G1Y275.26
G1Y276.59
G1Y277.92
G1Y279.25
G1Y280.58
G1Y281.91
G1Y283.24
G1Y284.57
G1Y285.9
G1Y287.23
G1Y288.56
G1Y289.89
G1Y291.22
G1Y292.55
G1Y293.88
G1Y295.21
G1Y296.54
G1Y297.87
G1Y299.2
G1Y300.53
G1Y301.86
G1Y303.19
G1Y304.52
G1Y305.85
G1Y307.18
G1Y308.51
G1Y309.84
G1Y311.17
G1Y312.5
G1Y313.83
G1Y315.16
G1Y316.49
G1Y317.82
G1Y319.15
G1Y320.48
G1Y321.81
G1Y323.14
G1Y324.47
G1Y325.8
G1Y327.13
G1Y328.46
G1Y329.79
G1Y331.12
G1Y332.45
G1Y333.78
G1Y335.11
G1Y336.44
G1Y337.77
G1Y339.1
G1X423.39
G1X422.09
G1X420.78
G1X419.48
G1X418.17
G1X416.87
G1X415.56
G1X414.26
G1X412.95
G1X411.64
G1X410.34
G1X409.03
G1X407.73
G1X406.42
G1X405.12
G1X403.81
G1X402.51
G1X401.2
G1X400.53Y338.05
G1X399.87Y337
G1X399.2Y335.95
G1X398.53Y334.9
G1X397.87Y333.85
G1X397.2Y332.8
G1X396.53Y331.75
G1X395.87Y330.7
G1X395.2Y329.65
G1X394.53Y328.6
G1X393.87Y327.55
G1X393.2Y326.5
G1X391.94
G1X390.68
G1X389.42
G1X388.16
G1X386.9
G1Y325.17
G1Y323.83
G1Y322.5
G1X385.64
G1X384.38
G1X383.12
G1X381.86
G1X380.6
G1X379.34
G1X378.08
G1X376.82
G1X375.56
G1X374.3
G1Y323.83
G1Y325.17
G1Y326.5
G1X373.04
G1X371.78
G1X370.52
G1X369.26
G1X368
G1X366.74
G1X365.48
G1X364.22
G1X362.96
G1X361.7
G1Y325.17
G1Y323.83
G1Y322.5
G1X360.44
G1X359.18
G1X357.92
G1X356.66
G1X355.4
G1X354.14
G1X352.88
G1X351.62
G1X350.36
G1X349.1
G1Y323.83
G1Y325.17
G1Y326.5
G1X347.84
G1X346.58
G1X345.32
G1X344.06
G1X342.8
G0X414.44Y28.49
; Layer Cut
G1X414.33Y28.47
G1X414.23Y28.46
G1X414.13Y28.43
G1X414.03Y28.41
G1X413.93Y28.38
G1X413.83Y28.34
G1X413.73Y28.3
G1X413.64Y28.26
G1X413.54Y28.22
G1X413.45Y28.16
G1X413.36Y28.11
G1X413.27Y28.05
G1X413.19Y27.99
G1X413.11Y27.93
G1X413.03Y27.86
G1X412.95Y27.79
G1X412.88Y27.71
G1X412.81Y27.63
G1X412.74Y27.55
G1X412.68Y27.47
G1X412.62Y27.38
G1X412.56Y27.29
G1X412.51Y27.2
G1X412.46Y27.11
G1X412.42Y27.02
G1X412.38Y26.92
G1X412.34Y26.82
G1X412.31Y26.72
G1X412.28Y26.62
G1X412.25Y26.52
G1X412.24Y26.42
G1X412.22Y26.31
G1X412.21Y26.21
G1Y26.1
G1Y26
G1Y25.89
G1Y25.79
G1X412.22Y25.69
G1X412.24Y25.58
G1X412.25Y25.48
G1X412.28Y25.38
G1X412.31Y25.28
G1X412.34Y25.18
G1X412.38Y25.08
G1X412.42Y24.98
G1X412.46Y24.89
G1X412.51Y24.8
G1X412.56Y24.7
G1X412.62Y24.62
G1X412.68Y24.53
G1X412.74Y24.45
G1X412.81Y24.37
G1X412.88Y24.29
G1X412.95Y24.21
G1X413.03Y24.14
G1X413.11Y24.07
G1X413.19Y24.01
G1X413.27Y23.95
G1X413.36Y23.89
G1X413.45Y23.83
G1X413.54Y23.78
G1X413.64Y23.74
G1X413.73Y23.69
G1X413.83Y23.66
G1X413.93Y23.62
G1X414.03Y23.59
G1X414.13Y23.57
G1X414.23Y23.54
G1X414.33Y23.53
G1X414.44Y23.51
G1X414.54
G1X414.65
G1X414.75
G1X414.86
G1X414.96
G1X415.07Y23.53
G1X415.17Y23.54
G1X415.27Y23.57
G1X415.37Y23.59
G1X415.47Y23.62
G1X415.57Y23.66
G1X415.67Y23.69
G1X415.76Y23.74
G1X415.86Y23.78
G1X415.95Y23.83
G1X416.04Y23.89
G1X416.13Y23.95
G1X416.21Y24.01
G1X416.29Y24.07
G1X416.37Y24.14
G1X416.45Y24.21
G1X416.52Y24.29
G1X416.59Y24.37
G1X416.66Y24.45
G1X416.72Y24.53
G1X416.78Y24.62
G1X416.84Y24.7
G1X416.89Y24.8
G1X416.94Y24.89
G1X416.98Y24.98
G1X417.02Y25.08
G1X417.06Y25.18
G1X417.09Y25.28
G1X417.12Y25.38
G1X417.15Y25.48
G1X417.17Y25.58
G1X417.18Y25.69
G1X417.19Y25.79
G1Y25.89
G1Y26
G1Y26.1
G1Y26.21
G1X417.18Y26.31
G1X417.17Y26.42
G1X417.15Y26.52
G1X417.12Y26.62
G1X417.09Y26.72
G1X417.06Y26.82
G1X417.02Y26.92
G1X416.98Y27.02
G1X416.94Y27.11
G1X416.89Y27.2
G1X416.84Y27.29
G1X416.78Y27.38
G1X416.72Y27.47
G1X416.66Y27.55
G1X416.59Y27.63
G1X416.52Y27.71
G1X416.45Y27.79
G1X416.37Y27.86
G1X416.29Y27.93
G1X416.21Y27.99
G1X416.13Y28.05
G1X416.04Y28.11
G1X415.95Y28.16
G1X415.86Y28.22
G1X415.76Y28.26
G1X415.67Y28.3
G1X415.57Y28.34
G1X415.47Y28.38
G1X415.37Y28.41
G1X415.27Y28.43
G1X415.17Y28.46
G1X415.07Y28.47
G1X414.96Y28.49
G1X414.86
G1X414.75
G1X414.65
G1X414.54
G1X414.44
G0X425.7Y15.5
; Layer Cut
G1Y16.83
G1Y18.16
G1Y19.49
G1Y20.82
G1Y22.15
G1Y23.48
G1Y24.81
G1Y26.14
G1Y27.47
G1Y28.8
G1Y30.13
G1Y31.46
G1Y32.79
G1Y34.12
G1Y35.45
G1Y36.78
G1Y38.11
G1Y39.44
G1Y40.77
G1Y42.1
G1Y43.43
G1Y44.76
G1Y46.09
G1Y47.42
G1Y48.75
G1Y50.08
G1Y51.41
G1Y52.74
G1Y54.07
G1Y55.4
G1Y56.73
G1Y58.06
G1Y59.39
G1Y60.72
G1Y62.05
G1Y63.38
G1Y64.71
G1Y66.04
G1Y67.37
G1Y68.7
G1Y70.03
G1Y71.36
G1Y72.69
G1Y74.02
G1Y75.35
G1Y76.68
G1Y78.01
G1Y79.34
G1Y80.67
G1Y82
G1Y83.33
G1Y84.66
G1Y85.99
G1Y87.32
G1Y88.65
G1Y89.98
G1Y91.31
G1Y92.64
G1Y93.96
G1Y95.29
G1Y96.62
G1Y97.95
G1Y99.28
G1Y100.61
G1Y101.94
G1Y103.27
G1Y104.6
G1Y105.93
G1Y107.26
G1Y108.59
G1Y109.92
G1Y111.25
G1Y112.58
G1Y113.91
G1Y115.24
G1Y116.57
G1Y117.9
G1Y119.23
G1Y120.56
G1Y121.89
G1Y123.22
G1Y124.55
G1Y125.88
G1Y127.21
G1Y128.54
G1Y129.87
G1Y131.2
G1Y132.53
G1Y133.86
G1Y135.19
G1Y136.52
G1Y137.85
G1Y139.18
G1Y140.51
G1Y141.84
G1Y143.17
G1Y144.5
G1Y145.83
G1Y147.16
G1Y148.49
G1Y149.82
G1Y151.15
G1Y152.48
G1Y153.81
G1Y155.14
G1Y156.47
G1Y157.8
G1Y159.13
G1Y160.46
G1Y161.79
G1Y163.12
G1Y164.45
G1Y165.78
G1Y167.11
G1Y168.44
G1Y169.77
G1Y171.1
G1X424.39
G1X423.09
G1X421.78
G1X420.48
G1X419.17
G1X417.87
G1X416.56
G1X415.26
G1X413.95
G1X412.64
G1X411.34
G1X410.03
G1X408.73
G1X407.42
G1X406.12
G1X404.81
G1X403.51
G1X402.2
G1X401.53Y170.05
G1X400.87Y169
G1X400.2Y167.95
G1X399.53Y166.9
G1X398.87Y165.85
G1X398.2Y164.8
G1X397.53Y163.75
G1X396.87Y162.7
G1X396.2Y161.65
G1X395.53Y160.6
G1X394.87Y159.55
G1X394.2Y158.5
G1X392.94
G1X391.68
G1X390.42
G1X389.16
G1X387.9
G1Y157.17
G1Y155.83
G1Y154.5
G1X386.64
G1X385.38
G1X384.12
G1X382.86
G1X381.6
G1X380.34
G1X379.08
G1X377.82
G1X376.56
G1X375.3
G1Y155.83
G1Y157.17
G1Y158.5
G1X374.04
G1X372.78
G1X371.52
G1X370.26
G1X369
G1X367.74
G1X366.48
G1X365.22
G1X363.96
G1X362.7
G1Y157.17
G1Y155.83
G1Y154.5
G1X361.44
G1X360.18
G1X358.92
G1X357.66
G1X356.4
G1X355.14
G1X353.88
G1X352.62
G1X351.36
G1X350.1
G1Y155.83
G1Y157.17
G1Y158.5
G1X348.84
G1X347.58
G1X346.32
G1X345.06
G1X343.8
G1X343.13Y159.55
G1X342.47Y160.6
G1X341.8Y161.65
G1X341.13Y162.7
G1X340.47Y163.75
G1X339.8Y164.8
G1X339.13Y165.85
G1X338.47Y166.9
G1X337.8Y167.95
G1X337.13Y169
G1X336.47Y170.05
G1X335.8Y171.1
G1X334.49
G1X333.19
G1X331.88
G1X330.58
G1X329.27
G1X327.97
G1X326.66
G1X325.36
G1X324.05
G1X322.74
G1X321.44
G1X320.13
G1X318.83
G1X317.52
G1X316.22
G1X314.91
G1X313.61
G1X312.3
G1Y169.77
G1Y168.45
G1Y167.12
G1Y165.79
G1Y164.47
G1Y163.14
G1Y161.82
G1Y160.49
G1Y159.16
G1Y157.84
G1Y156.51
G1Y155.18
G1Y153.86
G1Y152.53
G1Y151.21
G1Y149.88
G1Y148.55
G1Y147.23
G1Y145.9
G1X313.63
G1X314.97
G1X316.3
G1Y144.64
G1Y143.38
G1Y142.12
G1Y140.86
G1Y139.6
G1Y138.34
G1Y137.08
G1Y135.82
G1Y134.56
G1Y133.3
G1X314.97
G1X313.63
G1X312.3
G1Y132.04
G1Y130.78
G1Y129.52
G1Y128.26
G1Y127
G1Y125.74
G1Y124.48
G1Y123.22
G1Y121.96
G1Y120.7
G1X313.63
G1X314.97
G1X316.3
G1Y119.44
G1Y118.18
G1Y116.92
G1Y115.66
G1Y114.4
G1Y113.14
G1Y111.88
G1Y110.62
G1Y109.36
G1Y108.1
G1X314.97
G1X313.63
G1X312.3
G1Y106.84
G1Y105.58
G1Y104.32
G1Y103.06
G1Y101.8
G1Y100.54
G1Y99.28
G1Y98.02
G1Y96.76
G1Y95.5
G1X313.63
G1X314.97
G1X316.3
G1Y94.24
G1Y92.98
G1Y91.72
G1Y90.46
G1Y89.2
G1Y87.94
G1Y86.68
G1Y85.42
G1Y84.16
G1Y82.9
G1X314.97
G1X313.63
G1X312.3
G1Y81.64
G1Y80.38
G1Y79.12
G1Y77.86
G1Y76.6
G1Y75.34
G1Y74.08
G1Y72.82
G1Y71.56
G1Y70.3
G1X313.63
G1X314.97
G1X316.3
G1Y69.04
G1Y67.78
G1Y66.52
G1Y65.26
G1Y64
G1Y62.74
G1Y61.48
G1Y60.22
G1Y58.96
G1Y57.7
G1X314.97
G1X313.63
G1X312.3
G1Y56.44
G1Y55.18
G1Y53.92
G1Y52.66
G1Y51.4
G1Y50.14
G1Y48.88
G1Y47.62
G1Y46.36
G1Y45.1
G1X313.63
G1X314.97
G1X316.3
G1Y43.84
G1Y42.58
G1Y41.32
G1Y40.06
G1Y38.8
G1Y37.54
G1Y36.28
G1Y35.02
G1Y33.76
G1Y32.5
G1X314.97
G1X313.63
G1X312.3
G1Y31.24
G1Y29.98
G1Y28.72
G1Y27.46
G1Y26.2
G1Y24.94
G1Y23.68
G1Y22.42
G1Y21.16
G1Y19.9
G1X313.63
G1X314.97
G1X316.3
G1Y18.8
G1Y17.7
G1Y16.6
G1Y15.5
G1X317.6
G1X318.9
G1X320.2
G1X321.5
G1X322.8
G1X324.1
G1X325.4
G1X326.7
G1X328
G1X329.3
G1X330.6
G1X331.9
G1X333.2
G1X334.5
G1X335.8
G1X336.47Y14.45
G1X337.13Y13.4
G1X337.8Y12.35
G1X338.47Y11.3
G1X339.13Y10.25
G1X339.8Y9.2
G1X340.47Y8.15
G1X341.13Y7.1
G1X341.8Y6.05
G1X342.47Y5
G1X343.13Y3.95
G1X343.8Y2.9
G1X345.13
G1X346.45
G1X347.78
G1X349.11
G1X350.43
G1X351.76
G1X353.08
G1X354.41
G1X355.74
G1X357.06
G1X358.39
G1X359.72
G1X361.04
G1X362.37
G1X363.69
G1X365.02
G1X366.35
G1X367.67
G1X369
G1X370.33
G1X371.65
G1X372.98
G1X374.31
G1X375.63
G1X376.96
G1X378.28
G1X379.61
G1X380.94
G1X382.26
G1X383.59
G1X384.92
G1X386.24
G1X387.57
G1X388.89
G1X390.22
G1X391.55
G1X392.87
G1X394.2
G1X394.87Y3.95
G1X395.53Y5
G1X396.2Y6.05
G1X396.87Y7.1
G1X397.53Y8.15
G1X398.2Y9.2
G1X398.87Y10.25
G1X399.53Y11.3
G1X400.2Y12.35
G1X400.87Y13.4
G1X401.53Y14.45
G1X402.2Y15.5
G1X403.51
G1X404.81
G1X406.12
G1X407.42
G1X408.73
G1X410.03
G1X411.34
G1X412.64
G1X413.95
G1X415.26
G1X416.56
G1X417.87
G1X419.17
G1X420.48
G1X421.78
G1X423.09
G1X424.39
G1X425.7
M107
G1S0
M5
G90
; return to user-defined finish pos
G0 X0 Y0
M2
